icons/foursquare.svg

<?xml version="1.0" encoding="UTF-8" standalone="no"?>
<svg
   xmlns:dc="http://purl.org/dc/elements/1.1/"
   xmlns:cc="http://creativecommons.org/ns#"
   xmlns:rdf="http://www.w3.org/1999/02/22-rdf-syntax-ns#"
   xmlns:svg="http://www.w3.org/2000/svg"
   xmlns="http://www.w3.org/2000/svg"
   xmlns:sodipodi="http://sodipodi.sourceforge.net/DTD/sodipodi-0.dtd"
   xmlns:inkscape="http://www.inkscape.org/namespaces/inkscape"
   id="svg8"
   version="1.1"
   viewBox="0 0 79.374998 79.375002"
   height="300"
   width="300"
   sodipodi:docname="foursquare.svg"
   inkscape:version="0.92.4 (5da689c313, 2019-01-14)">
  <sodipodi:namedview
     pagecolor="#ffffff"
     bordercolor="#666666"
     borderopacity="1"
     objecttolerance="10"
     gridtolerance="10"
     guidetolerance="10"
     inkscape:pageopacity="0"
     inkscape:pageshadow="2"
     inkscape:window-width="1275"
     inkscape:window-height="937"
     id="namedview7"
     showgrid="false"
     inkscape:zoom="2.2250293"
     inkscape:cx="168.40338"
     inkscape:cy="194.35646"
     inkscape:window-x="635"
     inkscape:window-y="30"
     inkscape:window-maximized="0"
     inkscape:current-layer="svg8" />
  <defs
     id="defs2" />
  <metadata
     id="metadata5">
    <rdf:RDF>
      <cc:Work
         rdf:about="">
        <dc:format>image/svg+xml</dc:format>
        <dc:type
           rdf:resource="http://purl.org/dc/dcmitype/StillImage" />
        <dc:title />
      </cc:Work>
    </rdf:RDF>
  </metadata>
  <g
     transform="matrix(0.63007678,0,0,0.63007678,13.397399,-121.89094)"
     id="layer1">
    <path
       id="rect825"
       transform="matrix(0.26458333,0,0,0.26458333,0,217.62499)"
       d="m 212.52539,24.244141 c -11.29716,-0.01493 -26.36854,0.01279 -46.62305,0.04492 l -74.720699,0.119141 -2.890625,0.982422 c -5.777054,1.964825 -10.601587,6.061156 -13.208985,11.214844 -2.777057,5.489045 -2.58789,-3.515721 -2.58789,122.578122 0,126.87413 -0.219213,117.19458 2.751953,121.61133 3.33967,4.96456 9.3351,6.92422 15.927734,5.20703 1.427407,-0.3719 3.257828,-1.08695 4.06836,-1.58789 0.810531,-0.50094 14.969072,-16.55824 31.462892,-35.68359 16.49382,-19.12536 32.17108,-37.25725 34.83789,-40.29297 l 4.84765,-5.51953 25.05079,-0.23438 c 23.94783,-0.2245 25.16915,-0.2756 27.78125,-1.1582 7.42258,-2.50783 11.29864,-6.99731 13.95507,-16.16406 1.03175,-3.56035 25.05529,-123.163422 26.41211,-131.494143 0.84592,-5.193789 0.8346,-12.513225 -0.0254,-15.814454 -1.40708,-5.402192 -4.62133,-9.398411 -9.27148,-11.527343 -3.95647,-1.811339 -3.87609,-2.236461 -37.76758,-2.28125 z m -22.29492,29.042968 c 21.67475,0.01293 32.67375,0.133392 33.53125,0.363282 2.16879,0.583974 4.21199,2.629422 4.89062,4.894531 0.48099,1.605392 0.24858,3.267298 -2.4414,17.455078 -1.6351,8.623975 -3.17201,16.327065 -3.41602,17.119141 -0.56703,1.840667 -2.16334,3.733723 -4.23437,5.021484 l -1.63086,1.013672 -30.11719,0.21875 c -29.81079,0.217701 -30.13618,0.230482 -31.87695,1.169923 -2.24446,1.21111 -3.94828,3.00847 -4.81446,5.08203 -1.04849,2.51002 -0.94838,13.12664 0.14649,15.53711 0.99723,2.19553 3.86889,4.7186 6.14453,5.40039 1.2026,0.36019 8.92372,0.51468 26.27344,0.52148 23.04751,0.008 24.68331,0.0591 26.38086,0.83008 0.99537,0.45203 2.32013,1.4915 2.94336,2.3086 2.23918,2.93574 2.20737,3.49033 -1.22071,21.0332 -1.72482,8.82659 -3.47202,16.68167 -3.88281,17.45508 -0.87633,1.64995 -2.99751,3.32483 -5.10156,4.02929 -1.03568,0.34659 -8.0641,0.5 -22.89258,0.5 -24.03322,0 -24.45722,0.0457 -27.55078,2.96094 -0.96631,0.91064 -5.10813,5.71254 -9.20313,10.66992 -17.16535,20.78038 -40.22411,48.36329 -40.42968,48.36329 -0.12178,0 -0.16964,-39.6522 -0.10743,-88.11719 l 0.11329,-88.119143 1.31835,-1.867188 c 0.72548,-1.027011 2.11083,-2.279984 3.07813,-2.785156 1.75395,-0.916044 1.91333,-0.919087 58.8457,-1.035156 9.61716,-0.01956 18.02899,-0.02775 25.25391,-0.02344 z"
       style="opacity:1;fill:#ffffff;fill-opacity:1;fill-rule:evenodd;stroke:#ffffff;stroke-width:0;stroke-linecap:square;stroke-linejoin:round;stroke-miterlimit:4;stroke-dasharray:none;stroke-opacity:1;paint-order:normal"
       inkscape:connector-curvature="0" />
  </g>
</svg>

<?xml version="1.0" encoding="UTF-8" standalone="no"?>
<svg
   xmlns:dc="http://purl.org/dc/elements/1.1/"
   xmlns:cc="http://creativecommons.org/ns#"
   xmlns:rdf="http://www.w3.org/1999/02/22-rdf-syntax-ns#"
   xmlns:svg="http://www.w3.org/2000/svg"
   xmlns="http://www.w3.org/2000/svg"
   id="svg8"
   version="1.1"
   viewBox="0 0 79.374998 79.375002"
   height="300"
   width="300">
  <defs
     id="defs2" />
  <metadata
     id="metadata5">
    <rdf:RDF>
      <cc:Work
         rdf:about="">
        <dc:format>image/svg+xml</dc:format>
        <dc:type
           rdf:resource="http://purl.org/dc/dcmitype/StillImage" />
        <dc:title></dc:title>
      </cc:Work>
    </rdf:RDF>
  </metadata>
  <g
     transform="translate(0,-217.62499)"
     id="layer1">
    <path
       id="rect825"
       transform="matrix(0.26458333,0,0,0.26458333,0,217.62499)"
       d="M 212.52539 24.244141 C 201.22823 24.229211 186.15685 24.256927 165.90234 24.289062 L 91.181641 24.408203 L 88.291016 25.390625 C 82.513962 27.35545 77.689429 31.451781 75.082031 36.605469 C 72.304974 42.094514 72.494141 33.089748 72.494141 159.18359 C 72.494141 286.05772 72.274928 276.37817 75.246094 280.79492 C 78.585764 285.75948 84.581194 287.71914 91.173828 286.00195 C 92.601235 285.63005 94.431656 284.915 95.242188 284.41406 C 96.052719 283.91312 110.21126 267.85582 126.70508 248.73047 C 143.1989 229.60511 158.87616 211.47322 161.54297 208.4375 L 166.39062 202.91797 L 191.44141 202.68359 C 215.38924 202.45909 216.61056 202.40799 219.22266 201.52539 C 226.64524 199.01756 230.5213 194.52808 233.17773 185.36133 C 234.20948 181.80098 258.23302 62.197909 259.58984 53.867188 C 260.43576 48.673399 260.42444 41.353963 259.56445 38.052734 C 258.15737 32.650542 254.94312 28.654323 250.29297 26.525391 C 246.3365 24.714052 246.41688 24.28893 212.52539 24.244141 z M 190.23047 53.287109 C 211.90522 53.300042 222.90422 53.420501 223.76172 53.650391 C 225.93051 54.234365 227.97371 56.279813 228.65234 58.544922 C 229.13333 60.150314 228.90092 61.81222 226.21094 76 C 224.57584 84.623975 223.03893 92.327065 222.79492 93.119141 C 222.22789 94.959808 220.63158 96.852864 218.56055 98.140625 L 216.92969 99.154297 L 186.8125 99.373047 C 157.00171 99.590748 156.67632 99.603529 154.93555 100.54297 C 152.69109 101.75408 150.98727 103.55144 150.12109 105.625 C 149.0726 108.13502 149.17271 118.75164 150.26758 121.16211 C 151.26481 123.35764 154.13647 125.88071 156.41211 126.5625 C 157.61471 126.92269 165.33583 127.07718 182.68555 127.08398 C 205.73306 127.09154 207.36886 127.14304 209.06641 127.91406 C 210.06178 128.36609 211.38654 129.40556 212.00977 130.22266 C 214.24895 133.1584 214.21714 133.71299 210.78906 151.25586 C 209.06424 160.08245 207.31704 167.93753 206.90625 168.71094 C 206.02992 170.36089 203.90874 172.03577 201.80469 172.74023 C 200.76901 173.08682 193.74059 173.24023 178.91211 173.24023 C 154.87889 173.24023 154.45489 173.28595 151.36133 176.20117 C 150.39502 177.11181 146.2532 181.91371 142.1582 186.87109 C 124.99285 207.65147 101.93409 235.23438 101.72852 235.23438 C 101.60674 235.23438 101.55888 195.58218 101.62109 147.11719 L 101.73438 58.998047 L 103.05273 57.130859 C 103.77821 56.103848 105.16356 54.850875 106.13086 54.345703 C 107.88481 53.429659 108.04419 53.426616 164.97656 53.310547 C 174.59372 53.290988 183.00555 53.282798 190.23047 53.287109 z "
       style="opacity:1;fill:#ffffff;fill-opacity:1;fill-rule:evenodd;stroke:#ffffff;stroke-width:0;stroke-linecap:square;stroke-linejoin:round;stroke-miterlimit:4;stroke-dasharray:none;stroke-opacity:1;paint-order:normal" />
  </g>
</svg>
